X:1
T:The Poor Orphan-Child
T:The Poor Orphan-Child
T:Album for the Young
T:Robert Schumann, Op. 68 No. 6
C:Robert Schumann, Op. 68 No. 6
%%score { ( 1 4 ) | ( 2 3 ) }
L:1/8
Q:1/4=46
M:2/4
K:C
V:1 treble nm="Piano" snm="Pno."
V:4 treble 
V:2 bass 
V:3 bass 
V:1
"^Langsam"!p! (!3!A/B/) | (.!5![Ac].!2!!4![^GB].!3!A) (!1!A/B/) | %2
 (.!3![Ac].[Bd].[ce])!<(! (!3!e/>f/ | [eg]2!<)!!>(! [df]2 | B3)!>)! (A/B/) | %5
 (.[Ac].[^GB].A) (A/B/) | (.[Ac].[Bd].[ce])!<(! (!3!e/>f/ | [eg]2!<)!!>(! !2!!4![df]2)!>)! | %8
!>(! (B>c A)!>)! || !2![E^G]/[EA]/ | (.[EB].!5![Ec].!5![Ed].f) | %11
 (.!4!e.!5![Ec]) !4![EB] [E^G]/[EA]/ |"^Langsamer"!<(! (.[EB].[Ec].[Ed]!<)!.!1!!5![Af]) | %13
!>(! !2!!3![^GB]3!>)!"^Im Tempo" (!3![EA]/[GB]/) | (.!5![Ac].!2!!4![^GB].!3!A) (A/B/) | %15
 (.[Ac].[Bd].[ce])!<(! (!3!e/f/ | [eg]2!<)!!>(! [df]2 | B3)!>)! (A/B/) | (.[Ac].[^GB].A) (A/B/) | %19
 (.[Ac].[Bd].[ce])!<(! (e/f/ | [eg]2!<)!!>(! [df]2)!>)! |!>(! (B>c A)!>)! [E^G]/[EA]/ | %22
 (.[EB].[Ec].[Ed].f) | (.e.[Ec]) !4![EB] [E^G]/[EA]/ |"^Langsamer"!<(! (.[EB].[Ec].[Ed]!<)!.[Af]) | %25
!>(! [^GB]3!>)!"^Im Tempo" ([EA]/[GB]/) | (.[Ac].[^GB].A) (A/B/) | (.[Ac].[Bd].[ce])!<(! (e/f/ | %28
 [eg]2!<)!!>(! [df]2 | B3)!>)! (A/B/) | (.[Ac].[^GB].A) (A/B/) | (.[Ac].[Bd].[ce])!<(! (e/f/ | %32
 [eg]2!<)!!>(! [df]2)!>)! |!>(! (B>c A)!>)! z |] %34
V:2
 z | (.!3![A,E].!5!!1![E,D].!3![A,C]) z | (.!4![A,E].[G,G].!3![CG]) z |[K:treble] (c2 !2!B>!1!A) | %4
 ^G3 z |[K:bass] (.[A,E].[E,D].[A,C]) z | (.[A,E].[G,G].[CG]) z |[K:treble] (c2 !2!B>!1!A) | %8
 (!2!E>D C) || !4!E,/^F,/ | (.^G,.A,.!3!B,.!2!!1![DE]) | (.!3![CE].!3![A,C]) !4!!2![^G,B,]E,/^F,/ | %12
 x2 x E | x4 | (.!3!A,.[E,D].[A,C]) z | (.[A,E].[G,G].[CG]) z |[K:treble] (c2 B>A) | ^G3 z | %18
[K:bass] (.[A,E].[E,D].[A,C]) z | (.[A,E].[G,G].[CG]) z |[K:treble] (c2 B>A) | %21
 (E>D C)[K:bass] E,/^F,/ | (.^G,.A,.B,.[DE]) | (.[CE].[A,C]) [^G,B,] E,/^F,/ | x2 x E | x4 | %26
 (.A,.[E,D].[A,C]) z | (.[A,E].[G,G].[CG]) z |[K:treble] (c2 B>A) | ^G3 z | %30
[K:bass] (.[A,E].[E,D].[A,C]) z | (.[A,E].[G,G].[CG]) z |[K:treble] (c2 B>A) | (E>D C) z |] %34
V:3
 x | x4 | x4 |[K:treble] C2 !5!D2 | !4!E3 x |[K:bass] x4 | x4 |[K:treble] C2 D2 | E2 A, || x | x4 | %11
 x4 | ^G,A,B,(C/D/ | (!1!E2-) E/D/C/!4!B,/) | x4 | x4 |[K:treble] C2 D2 | E3 x |[K:bass] x4 | x4 | %20
[K:treble] C2 D2 | E2 A,[K:bass] x | x4 | x4 | ^G,A,B,(C/D/ | (E2-) E/D/C/B,/) | x4 | x4 | %28
[K:treble] C2 D2 | E3 x |[K:bass] x4 | x4 |[K:treble] C2 D2 | E2 A, x |] %34
V:4
 x | x4 | x4 | x4 | x4 | x4 | x4 | x4 | ^G2 A || x | x4 | x4 | x4 | x4 | x4 | x4 | x4 | x4 | x4 | %19
 x4 | x4 | ^G2 A x | x4 | x4 | x4 | x4 | x4 | x4 | x4 | x4 | x4 | x4 | x4 | ^G2 A x |] %34

